Papirus-nordic/22x22/apps/caja-actions.svg

<svg xmlns="http://www.w3.org/2000/svg" width="22" height="22" version="1">
 <g>
  <rect style="fill:#82abaa" width="18" height="12" x="2" y="1" rx=".75" ry=".75"/>
  <rect style="opacity:0.1" width="18" height="12" x="2" y="2.5" rx=".75" ry=".75"/>
  <rect style="fill:#a3be8c" width="18" height="12" x="2" y="3" rx=".75" ry=".75"/>
  <rect style="opacity:0.1" width="18" height="12" x="2" y="4.5" rx=".75" ry=".75"/>
  <rect style="fill:#ebcb8b" width="18" height="12" x="2" y="5" rx=".75" ry=".75"/>
  <rect style="opacity:0.2" width="20" height="14" x="1" y="7.5" rx="1" ry="1"/>
  <rect style="fill:#718382" width="20" height="14" x="1" y="7" rx="1" ry="1"/>
  <rect style="opacity:0.2" width="6" height="2" x="8" y="12.5" rx=".5" ry=".5"/>
  <rect style="fill:#ececec" width="6" height="2" x="8" y="12" rx=".5" ry=".5"/>
  <path style="fill:#ffffff;opacity:0.1" d="M 2.75 1 C 2.3345 1 2 1.3345 2 1.75 L 2 2.25 C 2 1.8345 2.3345 1.5 2.75 1.5 L 19.25 1.5 C 19.666 1.5 20 1.8345 20 2.25 L 20 1.75 C 20 1.3345 19.666 1 19.25 1 L 2.75 1 z"/>
  <path style="opacity:0.1;fill:#ffffff" d="M 2.75,3 C 2.3345,3 2,3.3345 2,3.75 V 4.25 C 2,3.8345 2.3345,3.5 2.75,3.5 H 19.25 C 19.666,3.5 20,3.8345 20,4.25 V 3.75 C 20,3.3345 19.666,3 19.25,3 Z"/>
  <path style="opacity:0.1;fill:#ffffff" d="M 2.75,5 C 2.3345,5 2,5.3345 2,5.75 V 6.25 C 2,5.8345 2.3345,5.5 2.75,5.5 H 19.25 C 19.666,5.5 20,5.8345 20,6.25 V 5.75 C 20,5.3345 19.666,5 19.25,5 Z"/>
 </g>
 <g transform="translate(-1,-1)">
  <circle style="fill:#6ec149" cx="18" cy="18" r="5"/>
  <path style="fill:#ffffff" d="m 17.223,15 -0.06613,0.7902 a 2.3572,2.3572 0 0 0 -0.6889,0.39844 l -0.7182,-0.33818 -0.75,1.2991 0.65205,0.45285 a 2.3572,2.3572 0 0 0 -0.036,0.3976 2.3572,2.3572 0 0 0 0.0343,0.39928 l -0.6505,0.4515 0.75,1.2991 0.7165,-0.33733 a 2.3572,2.3572 0 0 0 0.69055,0.39592 l 0.06613,0.79185 1.5,0 0.06612,-0.7902 a 2.3572,2.3572 0 0 0 0.6889,-0.39844 l 0.7182,0.33817 0.75,-1.2991 -0.65205,-0.45285 a 2.3572,2.3572 0 0 0 0.036,-0.3976 2.3572,2.3572 0 0 0 -0.0343,-0.39928 l 0.6504,-0.45118 -0.75,-1.2991 -0.7165,0.33734 a 2.3572,2.3572 0 0 0 -0.6905,-0.395 l -0.06612,-0.79185 -1.5,0 z m 0.75,2.1428 a 0.85715,0.85715 0 0 1 0.857,0.857 0.85715,0.85715 0 0 1 -0.857,0.857 0.85715,0.85715 0 0 1 -0.857,-0.857 0.85715,0.85715 0 0 1 0.857,-0.857 z"/>
 </g>
</svg>

<svg xmlns="http://www.w3.org/2000/svg" width="22" height="22" version="1"><rect width="18" height="12" x="2" y="1" rx=".75" ry=".75" fill="#82abaa"/><rect width="18" height="12" x="2" y="2.5" rx=".75" ry=".75" opacity=".1"/><rect width="18" height="12" x="2" y="3" rx=".75" ry=".75" fill="#a3be8c"/><rect width="18" height="12" x="2" y="4.5" rx=".75" ry=".75" opacity=".1"/><rect width="18" height="12" x="2" y="5" rx=".75" ry=".75" fill="#ebcb8b"/><rect width="20" height="14" x="1" y="7.5" rx="1" ry="1" opacity=".2"/><rect width="20" height="14" x="1" y="7" rx="1" ry="1" fill="#718382"/><rect width="6" height="2" x="8" y="12.5" rx=".5" ry=".5" opacity=".2"/><rect width="6" height="2" x="8" y="12" rx=".5" ry=".5" fill="#ececec"/><path d="M2.75 1a.748.748 0 0 0-.75.75v.5c0-.415.334-.75.75-.75h16.5c.416 0 .75.335.75.75v-.5a.748.748 0 0 0-.75-.75H2.75zM2.75 3a.748.748 0 0 0-.75.75v.5c0-.416.334-.75.75-.75h16.5c.416 0 .75.334.75.75v-.5a.748.748 0 0 0-.75-.75zM2.75 5a.748.748 0 0 0-.75.75v.5c0-.415.334-.75.75-.75h16.5c.416 0 .75.335.75.75v-.5a.748.748 0 0 0-.75-.75z" fill="#fff" opacity=".1"/><g transform="translate(-1 -1)"><circle cx="18" cy="18" r="5" fill="#6ec149"/><path d="M17.223 15l-.066.79a2.357 2.357 0 0 0-.689.399l-.718-.339-.75 1.3.652.452a2.357 2.357 0 0 0-.036.398 2.357 2.357 0 0 0 .034.4l-.65.45.75 1.3.716-.337a2.357 2.357 0 0 0 .69.395l.067.792h1.5l.066-.79a2.357 2.357 0 0 0 .689-.398l.718.338.75-1.3-.652-.452A2.357 2.357 0 0 0 20.33 18a2.357 2.357 0 0 0-.034-.399l.65-.451-.75-1.3-.716.338a2.357 2.357 0 0 0-.69-.395l-.067-.792h-1.5zm.75 2.143a.857.857 0 0 1 .857.857.857.857 0 0 1-.857.857.857.857 0 0 1-.857-.857.857.857 0 0 1 .857-.857z" fill="#fff"/></g></svg>
